packages/webapp/public/images/template-logos/sage.svg

<svg width="62" height="62" viewBox="0 0 62 62" fill="none" xmlns="http://www.w3.org/2000/svg">
<path d="M36.9056 26.9214C33.1032 26.4325 22.1846 26.8672 22.1846 21.8696C22.1846 18.9362 26.8019 17.3066 30.9846 17.3066C35.439 17.2522 39.7846 18.5017 43.4785 20.8918L49.1822 15.2424C47.4982 13.8844 41.2513 9.48438 30.9846 9.48438C21.6414 9.48438 13.2217 14.3733 13.2217 22.1955C13.2217 34.2004 27.7254 34.2004 33.755 34.798C37.4488 35.1782 40.7624 35.3955 40.7624 38.9807C40.7624 42.3486 35.6562 44.1955 31.6908 44.1955C25.2266 44.1955 21.3698 42.077 17.5673 38.6548L11.4834 44.793C16.7525 49.8992 23.8686 52.6695 31.2019 52.6152C42.0661 52.6152 49.9427 47.835 49.9427 38.2202C49.9427 31.8646 45.6513 28.0621 36.9056 26.9214Z" fill="#00DC06"/>
</svg>

<svg xmlns="http://www.w3.org/2000/svg" width="62" height="62" fill="none"><path d="M36.906 26.921c-3.803-.489-14.721-.054-14.721-5.052 0-2.933 4.617-4.563 8.8-4.563 4.454-.054 8.8 1.195 12.494 3.585l5.704-5.649c-1.684-1.358-7.931-5.758-18.197-5.758-9.343 0-17.763 4.889-17.763 12.711 0 12.005 14.504 12.005 20.533 12.603 3.694.38 7.007.597 7.007 4.183 0 3.368-5.106 5.215-9.072 5.215-6.464 0-10.321-2.119-14.123-5.541l-6.084 6.138c5.269 5.106 12.385 7.877 19.719 7.822 10.864 0 18.741-4.78 18.741-14.395 0-6.356-4.291-10.158-13.037-11.299z" fill="#00dc06"/></svg>
